src/pages/User/Import/asset/file.svg

<svg fill="none" height="72" viewBox="0 0 72 72" width="72" xmlns="http://www.w3.org/2000/svg" xmlns:xlink="http://www.w3.org/1999/xlink"><clipPath id="a"><path d="m11 11h50v50h-50z"/></clipPath><g clip-path="url(#a)"><path d="m44.3333 13.0834h-18.75c-1.25 0-2.0833.8333-2.0833 2.0833v10.4167l20.8333 10.4166 8.3334 3.125 8.3333-3.125v-10.4166z" fill="#21a366"/><path d="m23.5 25.5834h20.8333v10.4166h-20.8333z" fill="#107c41"/><path d="m60.9999 15.1667v10.4167h-16.6666v-12.5h14.5833c1.0417 0 2.0833 1.0416 2.0833 2.0833z" fill="#33c481"/><path d="m44.3333 36h-20.8333v20.8333c0 1.25.8333 2.0834 2.0833 2.0834h33.3334c1.25 0 2.0833-.8334 2.0833-2.0834v-10.4166z" fill="#185c37"/><path d="m39.75 23.5h-16.25v29.1667h15.8333c1.4584 0 2.9167-1.4584 2.9167-2.9167v-23.75c0-1.4583-1.0417-2.5-2.5-2.5z" fill="#000" opacity=".5"/><path d="m37.6667 50.5833h-24.1667c-1.4583 0-2.5-1.0417-2.5-2.5v-24.1667c0-1.4583 1.0417-2.5 2.5-2.5h24.375c1.25 0 2.2917 1.0417 2.2917 2.5v24.375c0 1.25-1.0417 2.2917-2.5 2.2917z" fill="#107c41"/><path d="m18.0833 44.3333 5.4166-8.3333-5-8.3334h3.9584l2.7083 5.2084c.4167.625.4167 1.0416.625 1.25l.625-1.25 2.9167-5.2084h3.75l-5 8.3334 5.2083 8.3333h-4.1667l-3.125-5.8333c0-.2084-.2083-.4167-.4166-.8334 0 .2084-.2084.4167-.4167.8334l-3.125 5.8333z" fill="#fff"/><path d="m44.3333 36h16.6666v10.4167h-16.6666z" fill="#107c41"/></g></svg>

<svg width="72" height="72" viewBox="0 0 72 72" fill="none" xmlns="http://www.w3.org/2000/svg">
    <g clip-path="url(#clip0_54_270)">
        <path d="M44.3333 13.0834H25.5833C24.3333 13.0834 23.5 13.9167 23.5 15.1667V25.5834L44.3333 36L52.6667 39.125L61 36V25.5834L44.3333 13.0834Z"
              fill="#21A366"/>
        <path d="M23.5 25.5834H44.3333V36H23.5V25.5834Z" fill="#107C41"/>
        <path d="M60.9999 15.1667V25.5834H44.3333V13.0834H58.9166C59.9583 13.0834 60.9999 14.125 60.9999 15.1667Z"
              fill="#33C481"/>
        <path d="M44.3333 36H23.5V56.8333C23.5 58.0833 24.3333 58.9167 25.5833 58.9167H58.9167C60.1667 58.9167 61 58.0833 61 56.8333V46.4167L44.3333 36Z"
              fill="#185C37"/>
        <path opacity="0.5"
              d="M39.75 23.5H23.5V52.6667H39.3333C40.7917 52.6667 42.25 51.2083 42.25 49.75V26C42.25 24.5417 41.2083 23.5 39.75 23.5Z"
              fill="black"/>
        <path d="M37.6667 50.5833H13.5C12.0417 50.5833 11 49.5416 11 48.0833V23.9166C11 22.4583 12.0417 21.4166 13.5 21.4166H37.875C39.125 21.4166 40.1667 22.4583 40.1667 23.9166V48.2916C40.1667 49.5416 39.125 50.5833 37.6667 50.5833Z"
              fill="#107C41"/>
        <path d="M18.0833 44.3333L23.4999 36L18.4999 27.6666H22.4583L25.1666 32.875C25.5833 33.5 25.5833 33.9166 25.7916 34.125L26.4166 32.875L29.3333 27.6666H33.0833L28.0833 36L33.2916 44.3333H29.1249L25.9999 38.5C25.9999 38.2916 25.7916 38.0833 25.5833 37.6666C25.5833 37.875 25.3749 38.0833 25.1666 38.5L22.0416 44.3333H18.0833Z"
              fill="white"/>
        <path d="M44.3333 36H60.9999V46.4167H44.3333V36Z" fill="#107C41"/>
    </g>
    <defs>
        <clipPath id="clip0_54_270">
            <rect width="50" height="50" fill="white" transform="translate(11 11)"/>
        </clipPath>
    </defs>
</svg>
